flaticon/transport/loader-1.svg

<svg xmlns="http://www.w3.org/2000/svg" width="32" height="32" viewBox="0 0 24 24">
    <path d="M7.25 8.503906C7.171875 8.183594 6.851562 7.941406 6.488281 7.941406L3.605469 7.941406C3.164062 7.941406 2.804688 8.300781 2.804688 8.742188L2.804688 10.746094C2.804688 11.1875 3.164062 11.546875 3.605469 11.546875L7.089844 11.546875C7.332031 11.546875 7.570312 11.425781 7.691406 11.226562 7.851562 10.984375 7.890625 10.746094 7.8125 10.503906zM3.605469 10.746094L3.605469 8.742188 6.488281 8.742188 7.089844 10.746094zM5.609375 20.761719C5.847656 20.761719 6.007812 20.601562 6.007812 20.359375 6.007812 20.117188 5.847656 19.957031 5.609375 19.957031 5.367188 19.957031 5.207031 20.117188 5.207031 20.359375 5.207031 20.601562 5.367188 20.761719 5.609375 20.761719zM7.609375 20.761719C7.851562 20.761719 8.011719 20.601562 8.011719 20.359375 8.011719 20.117188 7.851562 19.957031 7.609375 19.957031 7.371094 19.957031 7.210938 20.117188 7.210938 20.359375 7.210938 20.601562 7.371094 20.761719 7.609375 20.761719zM9.613281 20.761719C9.855469 20.761719 10.015625 20.601562 10.015625 20.359375 10.015625 20.117188 9.855469 19.957031 9.613281 19.957031 9.375 19.957031 9.214844 20.117188 9.214844 20.359375 9.214844 20.601562 9.375 20.761719 9.613281 20.761719zM9.613281 20.761719"/>
    <path d="M 23.996094 12.347656 C 23.996094 10.027344 21.113281 9.378906 20.027344 9.226562 L 20.027344 4.953125 L 20.46875 4.496094 C 20.789062 4.136719 20.949219 3.695312 20.910156 3.214844 C 20.871094 2.734375 20.628906 2.292969 20.269531 2.011719 C 19.589844 1.453125 18.585938 1.53125 17.984375 2.171875 L 10.21875 10.390625 L 9.414062 6.78125 C 9.253906 6.058594 8.613281 5.539062 7.851562 5.539062 L 6.808594 5.539062 L 6.808594 4.738281 C 6.808594 3.855469 6.089844 3.132812 5.207031 3.132812 C 4.328125 3.132812 3.605469 3.855469 3.605469 4.738281 L 3.605469 5.539062 L 2.402344 5.539062 C 1.523438 5.539062 0.800781 6.257812 0.800781 7.140625 L 0.800781 18.746094 C 0.3125 19.109375 0 19.691406 0 20.359375 C 0 21.480469 0.882812 22.363281 2.003906 22.363281 L 13.21875 22.363281 C 14.339844 22.363281 15.222656 21.480469 15.222656 20.359375 C 15.222656 19.238281 14.339844 18.355469 13.21875 18.355469 L 13.078125 18.355469 L 14.421875 14.550781 C 14.582031 14.269531 14.539062 13.910156 14.378906 13.628906 C 14.179688 13.308594 13.898438 13.148438 13.539062 13.148438 L 12.152344 13.148438 L 19.226562 5.789062 L 19.226562 9.179688 C 18.183594 9.3125 15.253906 9.925781 15.222656 12.308594 C 15.183594 12.628906 15.300781 13.789062 17.746094 16.234375 C 17.824219 16.3125 17.90625 16.355469 18.027344 16.355469 C 18.066406 16.355469 18.105469 16.355469 18.105469 16.3125 C 18.265625 16.273438 18.347656 16.191406 18.386719 16.03125 L 19.1875 12.46875 L 19.605469 11.007812 L 20.027344 12.46875 L 20.828125 16.074219 C 20.871094 16.191406 20.949219 16.3125 21.109375 16.355469 C 21.152344 16.355469 21.191406 16.355469 21.230469 16.355469 C 21.351562 16.355469 21.429688 16.3125 21.472656 16.273438 C 23.914062 13.828125 24.035156 12.628906 23.996094 12.347656 Z M 4.40625 4.738281 C 4.40625 4.296875 4.765625 3.9375 5.207031 3.9375 C 5.648438 3.9375 6.007812 4.296875 6.007812 4.738281 L 6.007812 5.539062 L 4.40625 5.539062 Z M 1.601562 7.140625 C 1.601562 6.699219 1.960938 6.339844 2.402344 6.339844 L 7.8125 6.339844 C 8.210938 6.339844 8.53125 6.621094 8.613281 6.980469 L 10.015625 13.148438 L 1.601562 13.148438 Z M 0.800781 20.359375 C 0.800781 19.679688 1.320312 19.15625 2.003906 19.15625 C 2.683594 19.15625 3.203125 19.679688 3.203125 20.359375 C 3.203125 21.039062 2.683594 21.5625 2.003906 21.5625 C 1.320312 21.5625 0.800781 21.039062 0.800781 20.359375 Z M 3.613281 19.15625 L 11.605469 19.15625 C 11.359375 19.492188 11.214844 19.90625 11.214844 20.359375 C 11.214844 20.8125 11.359375 21.226562 11.605469 21.5625 L 3.613281 21.5625 C 3.859375 21.226562 4.003906 20.8125 4.003906 20.359375 C 4.003906 19.90625 3.859375 19.492188 3.613281 19.15625 Z M 14.421875 20.359375 C 14.421875 21.039062 13.898438 21.5625 13.21875 21.5625 C 12.539062 21.5625 12.015625 21.039062 12.015625 20.359375 C 12.015625 19.679688 12.539062 19.15625 13.21875 19.15625 C 13.898438 19.15625 14.421875 19.679688 14.421875 20.359375 Z M 13.699219 14.070312 C 13.699219 14.070312 13.738281 14.148438 13.699219 14.230469 L 12.257812 18.277344 C 12.21875 18.316406 12.175781 18.355469 12.097656 18.355469 L 1.601562 18.355469 L 1.601562 17.15625 L 10.414062 17.15625 C 10.65625 17.15625 10.816406 16.996094 10.816406 16.753906 C 10.816406 16.515625 10.65625 16.355469 10.414062 16.355469 L 1.601562 16.355469 L 1.601562 15.550781 L 8.011719 15.550781 C 8.25 15.550781 8.410156 15.390625 8.410156 15.152344 C 8.410156 14.910156 8.25 14.75 8.011719 14.75 L 1.601562 14.75 L 1.601562 13.988281 L 13.539062 13.988281 C 13.621094 13.988281 13.699219 14.03125 13.699219 14.070312 Z M 10.855469 13.148438 L 10.570312 11.949219 L 10.421875 11.296875 L 18.585938 2.773438 C 18.90625 2.453125 19.429688 2.414062 19.789062 2.695312 C 19.988281 2.8125 20.109375 3.054688 20.109375 3.292969 C 20.109375 3.535156 20.027344 3.773438 19.867188 3.9375 L 19.453125 4.371094 C 19.359375 4.410156 19.289062 4.480469 19.253906 4.578125 L 11.054688 13.148438 Z M 18.425781 12.269531 L 17.785156 15.152344 C 16.023438 13.269531 16.023438 12.429688 16.023438 12.429688 C 16.023438 12.386719 16.023438 12.386719 16.023438 12.347656 C 16.023438 10.746094 18.066406 10.183594 19.066406 10.023438 Z M 21.472656 15.113281 L 20.828125 12.226562 L 20.1875 10.023438 C 21.191406 10.183594 23.234375 10.746094 23.234375 12.347656 C 23.234375 12.386719 23.273438 13.1875 21.472656 15.113281 Z M 21.472656 15.113281"/>
</svg>

<svg xmlns="http://www.w3.org/2000/svg" width="32" height="32" viewBox="0 0 24 24">
    <path d="M7.25 8.504c-.078-.32-.398-.563-.762-.563H3.605c-.44 0-.8.36-.8.801v2.004c0 .441.36.8.8.8H7.09c.242 0 .48-.12.601-.32.16-.242.2-.48.122-.722zm-3.645 2.242V8.742h2.883l.602 2.004zm0 0M5.61 20.762c.238 0 .398-.16.398-.403 0-.242-.16-.402-.399-.402-.242 0-.402.16-.402.402 0 .243.16.403.402.403zm0 0M7.61 20.762c.242 0 .402-.16.402-.403 0-.242-.16-.402-.403-.402-.238 0-.398.16-.398.402 0 .243.16.403.398.403zm0 0M9.613 20.762c.242 0 .403-.16.403-.403 0-.242-.16-.402-.403-.402-.238 0-.398.16-.398.402 0 .243.16.403.398.403zm0 0"/>
    <path d="M23.996 12.348c0-2.32-2.883-2.97-3.969-3.121V4.953l.442-.457c.32-.36.48-.8.441-1.281a1.716 1.716 0 0 0-.64-1.203 1.68 1.68 0 0 0-2.286.16L10.22 10.39l-.805-3.61A1.59 1.59 0 0 0 7.852 5.54H6.809v-.8c0-.884-.72-1.606-1.602-1.606a1.61 1.61 0 0 0-1.602 1.605v.801H2.402c-.879 0-1.601.719-1.601 1.602v11.605C.312 19.11 0 19.691 0 20.36c0 1.121.883 2.004 2.004 2.004h11.215a1.986 1.986 0 0 0 2.004-2.004 1.986 1.986 0 0 0-2.004-2.004h-.14l1.343-3.804c.16-.281.117-.64-.043-.922-.2-.32-.48-.48-.84-.48h-1.387l7.075-7.36v3.39c-1.043.133-3.973.747-4.004 3.13-.04.32.078 1.48 2.523 3.925.078.078.16.121.281.121.04 0 .078 0 .078-.043.16-.039.243-.12.282-.28l.8-3.563.418-1.461.422 1.46.801 3.606c.043.117.121.238.281.281h.121c.122 0 .2-.043.243-.082 2.441-2.445 2.562-3.644 2.523-3.925zm-19.59-7.61a.802.802 0 0 1 1.602 0v.801H4.406zM1.602 7.141c0-.442.359-.801.8-.801h5.41c.399 0 .72.281.801.64l1.403 6.168H1.602zM.8 20.359c0-.68.52-1.203 1.203-1.203.68 0 1.2.524 1.2 1.203 0 .68-.52 1.203-1.2 1.203A1.182 1.182 0 0 1 .8 20.36zm2.812-1.203h7.992c-.246.336-.39.75-.39 1.203 0 .453.144.868.39 1.203H3.613c.246-.335.39-.75.39-1.203 0-.453-.144-.867-.39-1.203zm10.809 1.203c0 .68-.524 1.203-1.203 1.203-.68 0-1.203-.523-1.203-1.203s.523-1.203 1.203-1.203 1.203.524 1.203 1.203zm-.723-6.289s.04.078 0 .16l-1.441 4.047c-.04.04-.082.078-.16.078H1.602v-1.199h8.812c.242 0 .402-.16.402-.402 0-.238-.16-.399-.402-.399H1.602v-.804h6.41c.238 0 .398-.16.398-.399 0-.242-.16-.402-.398-.402h-6.41v-.762h11.937c.082 0 .16.043.16.082zm-2.844-.922l-.285-1.199-.148-.652 8.164-8.524a.917.917 0 0 1 1.203-.078c.2.118.32.36.32.598 0 .242-.082.48-.242.644l-.414.434a.348.348 0 0 0-.2.207l-8.198 8.57zm7.57-.878l-.64 2.882c-1.762-1.882-1.762-2.722-1.762-2.722v-.082c0-1.602 2.043-2.164 3.043-2.325zm3.048 2.843l-.645-2.886-.64-2.204c1.003.16 3.046.723 3.046 2.325 0 .039.04.84-1.761 2.765zm0 0"/>
</svg>
